src/cmd/sc_dbindexdesign.svg

<?xml version="1.0" encoding="UTF-8" standalone="no"?>
<svg
   xmlns:dc="http://purl.org/dc/elements/1.1/"
   xmlns:cc="http://creativecommons.org/ns#"
   xmlns:rdf="http://www.w3.org/1999/02/22-rdf-syntax-ns#"
   xmlns:svg="http://www.w3.org/2000/svg"
   xmlns="http://www.w3.org/2000/svg"
   xmlns:sodipodi="http://sodipodi.sourceforge.net/DTD/sodipodi-0.dtd"
   xmlns:inkscape="http://www.inkscape.org/namespaces/inkscape"
   viewBox="0 0 16 16"
   version="1.1"
   id="svg4"
   sodipodi:docname="sc_dbindexdesign.svg"
   inkscape:export-filename="/home/jupiter007/Libreoffice yaru theme fullcolor/build/cmd/sc_dbindexdesign.png"
   inkscape:export-xdpi="95"
   inkscape:export-ydpi="95"
   inkscape:version="0.92.5 (2060ec1f9f, 2020-04-08)"><metadata
   id="metadata10">
  <rdf:RDF>
    <cc:Work
       rdf:about="">
      <dc:format>image/svg+xml</dc:format>
      <dc:type
         rdf:resource="http://purl.org/dc/dcmitype/StillImage" />
    </cc:Work>
  </rdf:RDF>
</metadata>
<defs
   id="defs8" />
<sodipodi:namedview
   pagecolor="#ffffff"
   bordercolor="#666666"
   borderopacity="1"
   objecttolerance="10"
   gridtolerance="10"
   guidetolerance="10"
   inkscape:pageopacity="0"
   inkscape:pageshadow="2"
   inkscape:window-width="1920"
   inkscape:window-height="1011"
   id="namedview6"
   showgrid="true"
   inkscape:zoom="41.7193"
   inkscape:cx="5.8647388"
   inkscape:cy="9.9670788"
   inkscape:window-x="0"
   inkscape:window-y="32"
   inkscape:window-maximized="1"
   inkscape:current-layer="svg4">
  <inkscape:grid
     type="xygrid"
     id="grid817" />
</sodipodi:namedview>
/&gt;<path
   sodipodi:nodetypes="ccssscccccccccccccccccc"
   style="fill:#000000;stroke:#000000;opacity:0.6;stroke-width:2;stroke-miterlimit:4;stroke-dasharray:none;stroke-linejoin:round"
   inkscape:connector-curvature="0"
   id="path819"
   d="M 10,2 V 4 H 3.5 C 3.2238576,4 3,4.2238576 3,4.5 3,4.7761424 3.2238576,5 3.5,5 H 4 V 6 H 5 V 5 H 6 V 6 H 7 V 5 h 3 v 2 h 3 V 2 Z m 1,1 h 1 v 3 h -1 z" />
<path
   d="M 10,2 V 4 H 3.5 C 3.2238576,4 3,4.2238576 3,4.5 3,4.7761424 3.2238576,5 3.5,5 H 4 V 6 H 5 V 5 H 6 V 6 H 7 V 5 h 3 v 2 h 3 V 2 Z m 1,1 h 1 v 3 h -1 z"
   id="path2"
   inkscape:connector-curvature="0"
   style="fill:#aee3f8;fill-opacity:1"
   sodipodi:nodetypes="ccssscccccccccccccccccc" />
<path
   inkscape:connector-curvature="0"
   id="path829"
   d="M 14.000162,14 2.0001616,7.9999996 V 14 Z"
   style="opacity:0.6;fill:#000000;fill-opacity:1;stroke:#000000;stroke-width:2;stroke-linecap:butt;stroke-linejoin:round;stroke-miterlimit:4;stroke-dasharray:none;stroke-opacity:1"
   sodipodi:nodetypes="cccc" />
<path
   style="opacity:1;fill:#ffffff;fill-opacity:1;stroke:none;stroke-width:1px;stroke-linecap:butt;stroke-linejoin:miter;stroke-opacity:1"
   d="M 14.000162,14 2.0001616,7.9999996 V 14 Z"
   id="path827"
   inkscape:connector-curvature="0"
   sodipodi:nodetypes="cccc" />
</svg>

<svg viewBox="0 0 16 16" xmlns="http://www.w3.org/2000/svg">/&gt;<path d="m10 2v2h-6.5c-.2761424 0-.5.2238576-.5.5s.2238576.5.5.5h.5v1h1v-1h1v1h1v-1h3v2h3v-5zm1 1h1v3h-1zm-9 3v.875 6.625.5h.46875 9.96875 1.5625l-1.34375-.875-9.96875-6.65625zm1 2 7.84375 5.03125-7.84375-.03125z" fill="#232629"/></svg>
